src/assets/icons/dark_toggler_track.svg

<svg fill="none" height="33" viewBox="0 0 66 33" width="66" xmlns="http://www.w3.org/2000/svg"><rect fill="#3e4eb7" height="33" rx="16.5" width="66"/><path d="m26.7132 24.9707c.1676-2.7734 2.4695-4.9707 5.285-4.9707 2.2706 0 4.2073 1.4294 4.9599 3.4373 1.9554.0237 3.5334 1.6153 3.5334 3.5761 0 1.9758-1.6016 3.5774-3.5774 3.5774-.8271 0-9.2531 0-10.1028 0-1.5527 0-2.8113-1.2586-2.8113-2.8113 0-1.5197 1.2059-2.7569 2.7132-2.8088z" fill="#38aaff"/><path d="m40.4916 27.0139c0 1.9585-1.5751 3.5496-3.5282 3.5761.5855-.6372.9426-1.4862.9426-2.4191 0-1.9606-1.5778-3.5525-3.5336-3.5764-.7526-2.0074-2.6889-3.4371-4.9599-3.4371-.2683 0-.5318.0202-.7897.0587.9161-.7596 2.0921-1.2159 3.3751-1.2159 2.2712 0 4.2073 1.429 4.9599 3.4372 1.9558.0238 3.5338 1.6151 3.5338 3.5765z" fill="#2081f6"/><path d="m20.0623 10.4337c-.1836-3.03159-2.6999-5.4337-5.7777-5.4337-2.4822 0-4.59925 1.56259-5.42206 3.75762-2.13746.02578-3.86254 1.76558-3.86254 3.90938 0 2.1597 1.75086 3.9106 3.91054 3.9106h11.04436c1.6972 0 3.0733-1.376 3.0733-3.0733 0-1.6614-1.3184-3.014-2.9659-3.0706z" fill="#1e6be7"/><path d="m23.0283 13.5043c0 1.6972-1.3762 3.0735-3.0734 3.0735h-.2382c.2228-.4255.3489-.9099.3489-1.4231 0-1.6614-1.3182-3.0141-2.9659-3.0709-.1834-3.03145-2.6998-5.43372-5.7778-5.43372-.415 0-.8198.04362-1.2096.12665 1.0529-1.09492 2.5328-1.77649 4.1723-1.77649 3.0778 0 5.5942 2.40179 5.7778 5.43386 1.6476.0561 2.9659 1.4089 2.9659 3.0702z" fill="#2081f6"/><path d="m18.5298 10.0851c-.145 0-.2763-.09896-.3117-.24605-.0535-.22313-.127-.44319-.2183-.654-.0703-.16248.0046-.3514.1671-.42178.1628-.07038.3514.00454.4218.16703.1058.2447.191.49994.2532.75892.0414.17221-.0647.34538-.2369.38678-.0253.0061-.0504.0091-.0752.0091z" fill="#1e6be7"/><path d="m17.4365 8.08861c-.0843 0-.1685-.03291-.2314-.09859-.7721-.80432-1.8093-1.24735-2.9204-1.24735-.1771 0-.3206-.14351-.3206-.32076 0-.17708.1435-.32059.3206-.32059 1.2876 0 2.489.51292 3.3832 1.44454.1226.12778.1184.33081-.0093.45357-.0622.05951-.1423.08918-.2221.08918z" fill="#1e6be7"/><path d="m32.7482 12.3068c-.0009 0-.0017 0-.0028 0-.3017-.0013-.5451-.2472-.5437-.5492l.0011-.2139c.0014-.3008.2459-.5437.5465-.5437h.0027c.3017.0014.5452.2473.5438.5493l-.0011.2138c-.0014.3009-.2459.5437-.5465.5437z" fill="#f6cb43"/><path d="m32.7418 14.4856c-.0008 0-.0016 0-.0025 0-.302-.0014-.5454-.2473-.544-.549l.0008-.2141c.0017-.3009.2459-.544.5465-.544h.0028c.3017.0013.5451.2472.5437.549l-.0008.2141c-.0014.3011-.2459.544-.5465.544z" fill="#f6cb43"/><path d="m33.9445 13.2931c-.0008 0-.0017 0-.0025 0l-.2147-.0011c-.3017-.0014-.5451-.2473-.5437-.549.0014-.3009.2456-.544.5462-.544h.0028l.2144.0011c.302.0014.5454.247.544.549-.0014.3008-.2456.544-.5465.544z" fill="#f6cb43"/><path d="m31.7609 13.2862c-.0008 0-.0017 0-.0025 0l-.2147-.0008c-.3017-.0014-.5451-.2473-.5437-.549.0014-.3012.2456-.544.5462-.544h.0028l.2144.0008c.3017.0017.5454.2473.544.5493-.0014.3008-.2459.5437-.5465.5437z" fill="#f6cb43"/><path d="m17.7482 26.3068c-.0011 0-.0017 0-.0028 0-.3017-.0013-.5454-.2472-.5437-.5489l.0008-.2142c.0014-.3008.2459-.5437.5465-.5437h.0025c.302.0014.5454.247.544.549l-.0011.2138c-.0014.3012-.2459.544-.5462.544z" fill="#fab03c"/><path d="m33.7482 3.30684c-.0011 0-.0017 0-.0028 0-.3017-.00138-.5454-.24728-.5437-.54898l.0008-.21413c.0014-.30087.2459-.54373.5465-.54373h.0025c.302.00138.5454.247.544.54898l-.0011.21385c-.0014.30115-.2459.54401-.5462.54401z" fill="#fab03c"/><path d="m17.7413 28.4856c-.0008 0-.0016 0-.0025 0-.3019-.0014-.5454-.2473-.544-.549l.0011-.2141c.0014-.302.2445-.544.549-.544.3017.0013.5454.2472.544.5489l-.0011.2142c-.0014.3008-.2459.544-.5465.544z" fill="#fab03c"/><path d="m33.7413 5.48558c-.0008 0-.0016 0-.0025 0-.3019-.00138-.5454-.24728-.544-.54898l.0011-.21412c.0014-.30199.2445-.54401.549-.54401.3017.00138.5454.24727.544.54898l-.0011.21412c-.0014.30088-.2459.54401-.5465.54401z" fill="#fab03c"/><path d="m18.944 27.2933c-.0008 0-.0017 0-.0025 0l-.2147-.0011c-.3017-.0016-.5451-.2473-.5437-.5492.0014-.3009.2459-.5438.5465-.5438h.0025l.2147.0011c.3017.0014.5451.2473.5437.549-.0014.3009-.2459.544-.5465.544z" fill="#fab03c"/><path d="m34.944 4.29332c-.0008 0-.0017 0-.0025 0l-.2147-.00111c-.3017-.00166-.5451-.24727-.5437-.54926.0014-.30087.2459-.54373.5465-.54373h.0025l.2147.0011c.3017.00139.5451.24728.5437.54899-.0014.30087-.2459.54401-.5465.54401z" fill="#fab03c"/><path d="m16.7609 27.2862c-.0008 0-.0017 0-.0028 0l-.2144-.0011c-.3017-.0013-.5451-.2472-.5437-.549.0014-.3008.2459-.544.5462-.544h.0028l.2144.0011c.302.0017.5454.2473.544.5493-.0014.3009-.2459.5437-.5465.5437z" fill="#fab03c"/><path d="m32.7609 4.28624c-.0008 0-.0017 0-.0028 0l-.2144-.00111c-.3017-.00138-.5451-.24728-.5437-.54898.0014-.30088.2459-.54401.5462-.54401h.0028l.2144.0011c.302.00166.5454.24728.544.54926-.0014.30088-.2459.54374-.5465.54374z" fill="#fab03c"/><g fill="#f6cb43"><path d="m24.3838 4.53413c-.0013 0-.0019 0-.0032 0-.3541-.00195-.6398-.29022-.6382-.64465l.001-.25099c.0016-.35313.2886-.63849.6414-.63849h.0029c.3545.00162.6401.29022.6385.64433l-.0013.25131c-.0016.35313-.2882.63849-.6411.63849z"/><path d="m24.3757 7.09093c-.001 0-.002 0-.003 0-.3544-.00162-.6401-.28989-.6384-.64432l.0013-.25099c.0016-.35346.2886-.63849.641-.63849h.0033c.3541.00162.6401.2899.6381.64433l-.0009.25098c-.0016.35346-.2886.63849-.6414.63849z"/><path d="m25.7875 5.69134c-.0013 0-.0022 0-.0032 0l-.2516-.00129c-.3545-.00163-.6401-.29023-.6385-.64433.0016-.35443.2886-.6372.6446-.63849l.2517.00129c.3541.00195.6397.29023.6381.64466-.0016.35313-.2883.63816-.6411.63816z"/><path d="m23.225 5.68377c-.0013 0-.0022 0-.0032 0l-.2516-.00129c-.3545-.00162-.6401-.2899-.6385-.64433.0016-.35313.2886-.63849.6414-.63849h.0029l.252.0013c.3541.00162.6397.29022.6381.64432-.0016.35314-.2883.63849-.6411.63849z"/><path d="m5.05206 13.3439c-.00097 0-.00194 0-.00292 0-.35443-.0017-.64011-.2899-.63849-.6444l.0013-.251c.00162-.3534.28828-.6384.64108-.6384h.00325c.3541.0016.63979.2899.63816.6443l-.00097.251c-.00162.3534-.2886.6385-.64141.6385z"/><path d="m5.04376 15.9012c-.00097 0-.00195 0-.00292 0-.35443-.0016-.64011-.2902-.63849-.6446l.0013-.251c.00194-.3531.2886-.6382.64141-.6382h.00324c.3541.0017.63979.2903.63817.6444l-.0013.2513c-.00162.3531-.2886.6381-.64141.6381z"/><path d="m6.45563 14.5016c-.00097 0-.00227 0-.00324 0l-.25164-.0013c-.3541-.0016-.64011-.2902-.63849-.6443.00195-.3531.2886-.6385.64141-.6385h.00324l.25164.0013c.3541.0016.63979.2899.63817.6444-.00162.3531-.28828.6384-.64109.6384z"/><path d="m3.89338 14.4935c-.00098 0-.00195 0-.00325 0l-.25163-.001c-.35411-.0016-.64011-.2902-.63849-.6443.00162-.3534.2886-.6385.64141-.6385h.00291l.25196.001c.35411.0019.64012.2902.63817.6446-.00162.3532-.28828.6382-.64108.6382z"/></g></svg>

<svg width="66" height="33" viewBox="0 0 66 33" fill="none" xmlns="http://www.w3.org/2000/svg">
<rect width="66" height="33" rx="16.5" fill="#3E4EB7"/>
<path d="M26.7132 24.9707C26.8808 22.1973 29.1827 20 31.9982 20C34.2688 20 36.2055 21.4294 36.9581 23.4373C38.9135 23.461 40.4915 25.0526 40.4915 27.0134C40.4915 28.9892 38.8899 30.5908 36.9141 30.5908C36.087 30.5908 27.661 30.5908 26.8113 30.5908C25.2586 30.5908 24 29.3322 24 27.7795C24 26.2598 25.2059 25.0226 26.7132 24.9707Z" fill="#38AAFF"/>
<path d="M40.4916 27.0139C40.4916 28.9724 38.9165 30.5635 36.9634 30.59C37.5489 29.9528 37.906 29.1038 37.906 28.1709C37.906 26.2103 36.3282 24.6184 34.3724 24.5945C33.6198 22.5871 31.6835 21.1574 29.4125 21.1574C29.1442 21.1574 28.8807 21.1776 28.6228 21.2161C29.5389 20.4565 30.7149 20.0002 31.9979 20.0002C34.2691 20.0002 36.2052 21.4292 36.9578 23.4374C38.9136 23.4612 40.4916 25.0525 40.4916 27.0139Z" fill="#2081F6"/>
<path d="M20.0623 10.4337C19.8787 7.40211 17.3624 5 14.2846 5C11.8024 5 9.68535 6.56259 8.86254 8.75762C6.72508 8.7834 5 10.5232 5 12.667C5 14.8267 6.75086 16.5776 8.91054 16.5776H19.9549C21.6521 16.5776 23.0282 15.2016 23.0282 13.5043C23.0282 11.8429 21.7098 10.4903 20.0623 10.4337Z" fill="#1E6BE7"/>
<path d="M23.0283 13.5043C23.0283 15.2015 21.6521 16.5778 19.9549 16.5778H19.7167C19.9395 16.1523 20.0656 15.6679 20.0656 15.1547C20.0656 13.4933 18.7474 12.1406 17.0997 12.0838C16.9163 9.05235 14.3999 6.65008 11.3219 6.65008C10.9069 6.65008 10.5021 6.6937 10.1123 6.77673C11.1652 5.68181 12.6451 5.00024 14.2846 5.00024C17.3624 5.00024 19.8788 7.40203 20.0624 10.4341C21.71 10.4902 23.0283 11.843 23.0283 13.5043Z" fill="#2081F6"/>
<path d="M18.5298 10.0851C18.3848 10.0851 18.2535 9.98614 18.2181 9.83905C18.1646 9.61592 18.0911 9.39586 17.9998 9.18505C17.9295 9.02257 18.0044 8.83365 18.1669 8.76327C18.3297 8.69289 18.5183 8.76781 18.5887 8.9303C18.6945 9.175 18.7797 9.43024 18.8419 9.68922C18.8833 9.86143 18.7772 10.0346 18.605 10.076C18.5797 10.0821 18.5546 10.0851 18.5298 10.0851Z" fill="#1E6BE7"/>
<path d="M17.4365 8.08861C17.3522 8.08861 17.268 8.0557 17.2051 7.99002C16.433 7.1857 15.3958 6.74267 14.2847 6.74267C14.1076 6.74267 13.9641 6.59916 13.9641 6.42191C13.9641 6.24483 14.1076 6.10132 14.2847 6.10132C15.5723 6.10132 16.7737 6.61424 17.6679 7.54586C17.7905 7.67364 17.7863 7.87667 17.6586 7.99943C17.5964 8.05894 17.5163 8.08861 17.4365 8.08861Z" fill="#1E6BE7"/>
<path d="M32.7482 12.3068C32.7473 12.3068 32.7465 12.3068 32.7454 12.3068C32.4437 12.3055 32.2003 12.0596 32.2017 11.7576L32.2028 11.5437C32.2042 11.2429 32.4487 11 32.7493 11H32.752C33.0537 11.0014 33.2972 11.2473 33.2958 11.5493L33.2947 11.7631C33.2933 12.064 33.0488 12.3068 32.7482 12.3068Z" fill="#F6CB43"/>
<path d="M32.7418 14.4856C32.741 14.4856 32.7402 14.4856 32.7393 14.4856C32.4373 14.4842 32.1939 14.2383 32.1953 13.9366L32.1961 13.7225C32.1978 13.4216 32.442 13.1785 32.7426 13.1785H32.7454C33.0471 13.1798 33.2905 13.4257 33.2891 13.7275L33.2883 13.9416C33.2869 14.2427 33.0424 14.4856 32.7418 14.4856Z" fill="#F6CB43"/>
<path d="M33.9445 13.2931C33.9437 13.2931 33.9428 13.2931 33.942 13.2931L33.7273 13.292C33.4256 13.2906 33.1822 13.0447 33.1836 12.743C33.185 12.4421 33.4292 12.199 33.7298 12.199H33.7326L33.947 12.2001C34.249 12.2015 34.4924 12.4471 34.491 12.7491C34.4896 13.0499 34.2454 13.2931 33.9445 13.2931Z" fill="#F6CB43"/>
<path d="M31.7609 13.2862C31.7601 13.2862 31.7592 13.2862 31.7584 13.2862L31.5437 13.2854C31.242 13.284 30.9986 13.0381 31 12.7364C31.0014 12.4352 31.2456 12.1924 31.5462 12.1924H31.549L31.7634 12.1932C32.0651 12.1949 32.3088 12.4405 32.3074 12.7425C32.306 13.0433 32.0615 13.2862 31.7609 13.2862Z" fill="#F6CB43"/>
<path d="M17.7482 26.3068C17.7471 26.3068 17.7465 26.3068 17.7454 26.3068C17.4437 26.3055 17.2 26.0596 17.2017 25.7579L17.2025 25.5437C17.2039 25.2429 17.4484 25 17.749 25H17.7515C18.0535 25.0014 18.2969 25.247 18.2955 25.549L18.2944 25.7628C18.293 26.064 18.0485 26.3068 17.7482 26.3068Z" fill="#FAB03C"/>
<path d="M33.7482 3.30684C33.7471 3.30684 33.7465 3.30684 33.7454 3.30684C33.4437 3.30546 33.2 3.05956 33.2017 2.75786L33.2025 2.54373C33.2039 2.24286 33.4484 2 33.749 2H33.7515C34.0535 2.00138 34.2969 2.247 34.2955 2.54898L34.2944 2.76283C34.293 3.06398 34.0485 3.30684 33.7482 3.30684Z" fill="#FAB03C"/>
<path d="M17.7413 28.4856C17.7405 28.4856 17.7397 28.4856 17.7388 28.4856C17.4369 28.4842 17.1934 28.2383 17.1948 27.9366L17.1959 27.7225C17.1973 27.4205 17.4404 27.1785 17.7449 27.1785C18.0466 27.1798 18.2903 27.4257 18.2889 27.7274L18.2878 27.9416C18.2864 28.2424 18.0419 28.4856 17.7413 28.4856Z" fill="#FAB03C"/>
<path d="M33.7413 5.48558C33.7405 5.48558 33.7397 5.48558 33.7388 5.48558C33.4369 5.4842 33.1934 5.2383 33.1948 4.9366L33.1959 4.72248C33.1973 4.42049 33.4404 4.17847 33.7449 4.17847C34.0466 4.17985 34.2903 4.42574 34.2889 4.72745L34.2878 4.94157C34.2864 5.24245 34.0419 5.48558 33.7413 5.48558Z" fill="#FAB03C"/>
<path d="M18.944 27.2933C18.9432 27.2933 18.9423 27.2933 18.9415 27.2933L18.7268 27.2922C18.4251 27.2906 18.1817 27.0449 18.1831 26.743C18.1845 26.4421 18.429 26.1992 18.7296 26.1992H18.7321L18.9468 26.2003C19.2485 26.2017 19.4919 26.4476 19.4905 26.7493C19.4891 27.0502 19.2446 27.2933 18.944 27.2933Z" fill="#FAB03C"/>
<path d="M34.944 4.29332C34.9432 4.29332 34.9423 4.29332 34.9415 4.29332L34.7268 4.29221C34.4251 4.29055 34.1817 4.04494 34.1831 3.74295C34.1845 3.44208 34.429 3.19922 34.7296 3.19922H34.7321L34.9468 3.20032C35.2485 3.20171 35.4919 3.4476 35.4905 3.74931C35.4891 4.05018 35.2446 4.29332 34.944 4.29332Z" fill="#FAB03C"/>
<path d="M16.7609 27.2862C16.7601 27.2862 16.7592 27.2862 16.7581 27.2862L16.5437 27.2851C16.242 27.2838 15.9986 27.0379 16 26.7361C16.0014 26.4353 16.2459 26.1921 16.5462 26.1921H16.549L16.7634 26.1932C17.0654 26.1949 17.3088 26.4405 17.3074 26.7425C17.306 27.0434 17.0615 27.2862 16.7609 27.2862Z" fill="#FAB03C"/>
<path d="M32.7609 4.28624C32.7601 4.28624 32.7592 4.28624 32.7581 4.28624L32.5437 4.28513C32.242 4.28375 31.9986 4.03785 32 3.73615C32.0014 3.43527 32.2459 3.19214 32.5462 3.19214H32.549L32.7634 3.19324C33.0654 3.1949 33.3088 3.44052 33.3074 3.7425C33.306 4.04338 33.0615 4.28624 32.7609 4.28624Z" fill="#FAB03C"/>
<path d="M24.3838 4.53413C24.3825 4.53413 24.3819 4.53413 24.3806 4.53413C24.0265 4.53218 23.7408 4.24391 23.7424 3.88948L23.7434 3.63849C23.745 3.28536 24.032 3 24.3848 3H24.3877C24.7422 3.00162 25.0278 3.29022 25.0262 3.64433L25.0249 3.89564C25.0233 4.24877 24.7367 4.53413 24.3838 4.53413Z" fill="#F6CB43"/>
<path d="M24.3757 7.09093C24.3747 7.09093 24.3737 7.09093 24.3727 7.09093C24.0183 7.08931 23.7326 6.80104 23.7343 6.44661L23.7356 6.19562C23.7372 5.84216 24.0242 5.55713 24.3766 5.55713H24.3799C24.734 5.55875 25.02 5.84703 25.018 6.20146L25.0171 6.45244C25.0155 6.8059 24.7285 7.09093 24.3757 7.09093Z" fill="#F6CB43"/>
<path d="M25.7875 5.69134C25.7862 5.69134 25.7853 5.69134 25.7843 5.69134L25.5327 5.69005C25.1782 5.68842 24.8926 5.39982 24.8942 5.04572C24.8958 4.69129 25.1828 4.40852 25.5388 4.40723L25.7905 4.40852C26.1446 4.41047 26.4302 4.69875 26.4286 5.05318C26.427 5.40631 26.1403 5.69134 25.7875 5.69134Z" fill="#F6CB43"/>
<path d="M23.225 5.68377C23.2237 5.68377 23.2228 5.68377 23.2218 5.68377L22.9702 5.68248C22.6157 5.68086 22.3301 5.39258 22.3317 5.03815C22.3333 4.68502 22.6203 4.39966 22.9731 4.39966H22.976L23.228 4.40096C23.5821 4.40258 23.8677 4.69118 23.8661 5.04528C23.8645 5.39842 23.5778 5.68377 23.225 5.68377Z" fill="#F6CB43"/>
<path d="M5.05206 13.3439C5.05109 13.3439 5.05012 13.3439 5.04914 13.3439C4.69471 13.3422 4.40903 13.054 4.41065 12.6995L4.41195 12.4485C4.41357 12.0951 4.70023 11.8101 5.05303 11.8101H5.05628C5.41038 11.8117 5.69607 12.1 5.69444 12.4544L5.69347 12.7054C5.69185 13.0588 5.40487 13.3439 5.05206 13.3439Z" fill="#F6CB43"/>
<path d="M5.04376 15.9012C5.04279 15.9012 5.04181 15.9012 5.04084 15.9012C4.68641 15.8996 4.40073 15.611 4.40235 15.2566L4.40365 15.0056C4.40559 14.6525 4.69225 14.3674 5.04506 14.3674H5.0483C5.4024 14.3691 5.68809 14.6577 5.68647 15.0118L5.68517 15.2631C5.68355 15.6162 5.39657 15.9012 5.04376 15.9012Z" fill="#F6CB43"/>
<path d="M6.45563 14.5016C6.45466 14.5016 6.45336 14.5016 6.45239 14.5016L6.20075 14.5003C5.84665 14.4987 5.56064 14.2101 5.56226 13.856C5.56421 13.5029 5.85086 13.2175 6.20367 13.2175H6.20691L6.45855 13.2188C6.81265 13.2204 7.09834 13.5087 7.09672 13.8632C7.0951 14.2163 6.80844 14.5016 6.45563 14.5016Z" fill="#F6CB43"/>
<path d="M3.89338 14.4935C3.8924 14.4935 3.89143 14.4935 3.89013 14.4935L3.6385 14.4925C3.28439 14.4909 2.99839 14.2023 3.00001 13.8482C3.00163 13.4948 3.28861 13.2097 3.64142 13.2097H3.64433L3.89629 13.2107C4.2504 13.2126 4.53641 13.5009 4.53446 13.8553C4.53284 14.2085 4.24618 14.4935 3.89338 14.4935Z" fill="#F6CB43"/>
</svg>
